X:1
T:Ben Hur Chariot Race March
T:Ben Hur Chariot Race March
T:E.T Paull
T:Copyrighted 1894 by E.T. Paull
T:Copyrighted 1894 by E.T. Paull
T:Copyrighted 1894 by E.T. Paull
T:Copyrighted 1894 by E.T. Paull
T:Copyrighted 1894 by E.T. Paull
T:Copyrighted 1894 by E.T. Paull
T:Copyrighted 1894 by E.T. Paull
C:E.T Paull
Z:Copyrighted 1894 by E.T. Paull
%%score { 1 | 2 }
L:1/8
Q:1/4=120
M:2/4
K:Eb
V:1 treble nm="Piano" snm="Pno."
V:2 bass 
V:1
"^Con Spirito"!ff! !>!BB/B/ BB | !>![FBd]B/B/!<(! BB | !>![FBdf]B/B/ BB!<)! | %3
 !>![bb']!>![aa']!>![ff']!>![dd'] | !>![Bb]!>![Aa]!>![Ff]!>![Dd] | %5
 !>![B,B]!>![=B,=B]!>![Cc]!>![Dd] |!>(! [Ee] [G,B,E] z [G,B,E]!>)! | z [G,B,E] z [G,B,E] | %8
!mf! [GB]/[GB]/[GB]/[GB]/ [Gc]G | !>![GB] !>![GB]2 z | [GB]/[GB]/[GB]/[GB]/ [Gc]G | %11
 !>![AB] !>![AB]2 z | [Bab]/[Bab]/[Bab]/[Bab]/ [cac']!<(!a | [dad']!<)! !>![dad']2!f! a | %14
 !>![cac'] !>![cac']2!>(! f | !>![Bgb] !>![Bgb]2!>)! z |!mf! [GB]/[GB]/[GB]/[GB]/ [Gc]G | %17
 !>![GB] !>![GB]2 z | [GB]/[GB]/[GB]/[GB]/ [GB][Gc] | !>![GBd] !>![GBd]2 z | %20
"_cresc." [dd']/[dd']/!<(![dd']/[dd']/ [dd']!>![cc']!<)! | !>![Bb]!>![=A=a] !>![Gg]2 | %22
!ff! ^F_E D/C/B,/=A,/ | G, (B/b/ B[Bb]) |!mf! [GB]/[GB]/[GB]/[GB]/ [Gc]G | !>![GB] !>![GB]2 z | %26
 [GB]/[GB]/[GB]/[GB]/ [Gc]G | !>![AB] !>![AB]2 z | [Bab]/[Bab]/[Bab]/[Bab]/ [cac']!<(!a | %29
 [dad']!<)! !>![dad']2!f! a | !>![cac'] !>![cac']2!>(! f | !>![Bgb] !>![Bgb]2!>)! z | %32
!mf! [GB]/[GB]/[GB]/[GB]/ [Gc]G | !>![GB] !>![GB]2 z | [GB]/[GB]/[GB]/[GB]/ [GB][Gc] | %35
 !>![FBd] !>![FBd]2 z |"_cresc." d/d'/d/!<(!d'/ d[ee']!<)! | f/f'/f/f'/ f[gg'] | %38
 =a/a'/a/a'/ a[c'c''] | [bb'] B/B/ BB |"^Brilliante."!ff! d/A/F/A/ c/A/F/A/ | %41
 !>![Ad] !>![Ad]2 [Ac] | c/B/G/B/ e/B/G/B/ | !>!g !>![GBe]2 [GBe] | d/A/F/A/ c/A/F/A/ | %45
 !>![Ad] !>![Ad]2 B | c/B/G/B/ cB | G z !>![GBe]2 | d/A/F/A/ c/A/F/A/ | !>![Ad] !>![Ad]2 [Ac] | %50
 c/B/G/B/ e/B/G/B/ | !>!g !>![GBe]2 [GBe] |"_tutta forza" [EGe]>[EGe] !>![EGe]!>![EGe] | %53
 [E^F=Ae]>[EFAe] !>![EFAe]!>![EFAe] | !>![EGBe]2 !>![FABd]2 | [EGBe]B/B/ BB | d'/a/f/a/ c'/a/f/a/ | %57
 !arpeggio!!>![dad'] !>![dad']2 [ab] | c'/b/g/b/ e'/b/g/b/ | !arpeggio!!>![bg'] !>![gbe']2 [ge'] | %60
 d'/a/f/a/ c'/a/f/a/ | !arpeggio!!>![dad'] !>![dad']2 [ab] | c'/b/g/b/ c'b | %63
 g z !arpeggio![gbe']2 | d'/a/f/a/ c'/a/f/a/ | !arpeggio!!>![dad'] !>![dad']2 [ab] | %66
 c'/b/g/b/ e'/b/g/b/ | !arpeggio!!>![bg'] !>![gbe']2 [ee'] | %68
 [ege']>"_tutta forza"[ege'] [ege'][ege'] |!<(! [e^f=ae']>[efae'] [efae']!<)![efae'] | %70
 !>![egbe']2 !>![fabd']2 | [egbe'] z (3[ee'][ff'][gg'] ||[K:Ab]!ff! !>![aa'][ee'] [cc'][ee'] | %73
 [Aa] [A,CE] z [A,CE] |: z [A,CE]z[A,CE] | z [A,CE]/[A,CE]/ [A,CE][A,CE] | z [A,CE]z[A,CE] | %77
 z [A,CE]/[A,CE]/ [A,CE][A,CE] | z [G,DE]z[G,DE] | z [G,DE]/[G,DE]/ [G,DE][G,DE] | %80
 z [G,B,E]z[G,DE] | z [A,CE]/[A,CE]/ [A,CE][A,CE] | z [A,CE]z[A,CE] | %83
 z [A,CE]/[A,CE]/ [A,CE][A,CE] | z [A,CE]z[A,CE] | z [A,CE]/[A,CE]/ [A,CE][A,CE] | %86
 z [A,B,=D]z[A,B,D] | z [A,B,=D]"_cresc."z!<(![A,B,D]!<)! |1!ff! [G,B,E] z [Ee]>[Ff] | %89
 [Ee][Dd] [Cc][B,B] :|2 [G,B,E]3/2 [Gg]/ !>![Bb]!>![cc'] || %91
!<(! !>![dd']!>![=d=d']!>![ee']!>![aa']!<)! |:!ff! [gg']2 [ff']2 | [ee']2 [dd']2 | [cc']>a a[ff'] | %95
 [ee']4 | [dd']>[Bb] [Bb][dd'] | [gg']4 | [ff']>[ee'] [cc'][ee'] | [aa']2 [ee'][aa'] | %100
 [gg']2 [ff']2 | [ee']2 [dd']2 | [cc']>a a[cc'] ||1 [ff']2 [ee']2 | [=d=d']>[Bb] [Bb][Bb] | %105
 [cc'][Bb] [cc'][=d=d'] | [ee'][Bb] [cc'][=d=d'] | [ee']2 [ee'][aa'] :|2 [aa']2 [ff']2 || %109
 [ee'][cc'] [dd'][=d=d'] | [ee'][=e=e'] [ff'][gg'] | [aa'] z [egbe']2 | [ac'e'a']2 z2 || %113
[K:Eb]!ff! !>![B,B]B/B/ BB | !>![Bb]!>![Aa]!>![Ff]!>![Ee] | !>![B,B]!>![=B,=B]!>![Cc]!>![D=d] | %116
 [Ee] z z2 |:!mf! !//![GB]2 [Gc]G | !>![GB] !>![GB]2 z | !//![GB]2 [Gc]G | !>![AB] !>![AB]2 z | %121
 !//![AB]2 [Ac]A | [Ad] [Ad]2 A | [Ac] [Ac]2 F | [GB] [GB]2 z | !//![GB]2 [Gc]G | %126
 !>![GB] !>![GB]2 z ||1 !//![GB]2 [GB][Gc] | !>![GBd] !>![GBd]2 z | !//![dd']2 [dd']!>![cc'] | %130
 !>![Bb]!>![=A=a] !>![Gg]2 |!ff! ^F_E D/C/B,/=A,/ | G, (B/b/ B[Bb]) :| !//![GB]2 [GB][Gc] | %134
 [Fd] [Fd]2 z | D/d/D/d/ D[Ee] | F/f/F/f/ F[Gg] | =A/=a/A/a/ A[cc'] | [Bb]!ff!B/B/ BB |: %139
"^Brill." (d/A/F/A/) (c/A/F/A/) | !>![Ad] !>![Ad]2 [Ac] | (c/B/G/B/) (e/B/G/B/) | %142
 !>![Bg] !>![GBe]2 [GBe] | (d/A/F/A/) (c/A/F/A/) | !>![Ad] !>![Ad]2 B | (c/B/G/B/) cB | %146
 G z !>![GBe]2 | (d/A/F/A/) (c/A/F/A/) | !>![Ad] !>![Ad]2 [Ac] | (c/B/G/B/) (e/B/G/B/) | %150
 !>![Bg] !>![GBe]2 [GBe] |"_tutta forza" [EGe]>[EGe] !>![EGe]!>![EGe] | %152
 [E^F=Ae]>[EFAe] !>![EFAe]!>![EFAe] |1 !>![EGBe]2 !>![FABd]2 | [EGBe]B/B/ BB :|2 %155
 !>![EGBe]2 !>![FBdf]2 |!ff! [GBeg]>[GBeg] [GBeg][GBeg] || [GBeg]>[GBeg] [GBeg][GBeg] | %158
 [Aea]>[Aea] [Aea][Aea] | [=Ae^f=a]>[Aefa] [Aefa][Aefa] | [Begb]>[Geg] [Geg][Geg] | %161
 [Fdf]>[Fdf] [Fdf][Fdf] | [GBe]>[FBd] [FBd][FBd] | [GBe]>[FBd] [FBd][FBd] | [GBe][FBd][GBe][FBd] | %165
 [GBe][FBd][GBe][FBd] | !>![GBe] z !>![Beg] z | !>![GBe] z !>![Beg] z | !>![GBe] z z2 | %169
{/[GBeg]} [GBeg] z z2 |{/!fermata![G,B,E]} !fermata![G,B,E]4 |] %171
V:2
 !>![B,,B,]B,/B,/ B,B, | !>![B,,B,]B,/B,/ B,B, | !>![B,,B,]B,/B,/ B,B, | [B,,D,F,A,]4- | %4
 [B,,D,F,A,]4 | [B,,,B,,][=B,,,=B,,][C,,C,][D,,D,] | [E,,E,] z [B,,,B,,] z | [E,,E,] z B,, z | %8
 E,[G,B,E] B,,[G,B,E] | E,[G,B,E] B,,[G,B,E] | E,[G,B,E] B,,[G,B,E] | F,[A,B,D] B,,[A,B,D] | %12
 F,[A,B,D] B,,[A,B,D] | F,[A,B,D] B,,[A,B,D] | F,[A,B,D] B,,[A,B,D] | E,[G,B,E] B,,[G,B,E] | %16
 E,[G,B,E] B,,[G,B,E] | E,[G,B,E] B,,[G,B,E] | E,[G,B,E] B,,[G,B,E] | D,[G,B,D] D,[G,B,D] | %20
 D,[^F,=A,D] [D,F,A,D]!>![C,C] | !>![B,,B,]!>![A,,A,] !>![G,,G,]2 | ^F,_E, D,/C,/B,,/=A,,/ | %23
 G,, z !>!B,,[F,A,B,D] | E,[G,B,E] B,,[G,B,E] | E,[G,B,E] B,,[G,B,E] | E,[G,B,E] B,,[G,B,E] | %27
 F,[A,B,D] B,,[A,B,D] | F,[A,B,D] B,,[A,B,D] | F,[A,B,D] B,,[A,B,D] | F,[A,B,D] B,,[A,B,D] | %31
 E,[G,B,E] B,,[G,B,E] | E,[G,B,E] B,,[G,B,E] | E,[G,B,E] B,,[G,B,E] | E,[G,B,E] =E,[G,B,C] | %35
 F,[B,D] D,[F,B,] | B,,[F,B,D] F,,[F,B,D] | B,,[F,B,D] F,,[F,B,D] | C,[=A,CE] F,[A,CE] | %39
 [B,,B,] B,/B,/ B,B, | F,[A,B,D] B,,[A,B,D] | F,[A,B,D] B,,[A,B,D] | E,[G,B,E] B,,[G,B,E] | %43
 E,[G,B,E] B,,[G,B,E] | F,[A,B,D] B,,[A,B,D] | F,[A,B,D] B,,[A,B,D] | E,[G,B,E] B,,[G,B,E] | %47
 E,[G,B,E] B,,[G,B,E] | F,[A,B,D] B,,[A,B,D] | F,[A,B,D] B,,[A,B,D] | E,[G,B,E] B,,[G,B,E] | %51
 E,[G,B,E] B,,[G,B,E] | [C,,C,]>[C,,C,] [C,,C,][C,,C,] | [_C,,_C,]>[C,,C,] [C,,C,][C,,C,] | %54
 !>![B,,,B,,]2 !>![B,,,B,,]2 | [E,,E,] B,/B,/ B,B, | F,[A,B,D] B,,[A,B,D] | F,[A,B,D] B,,[A,B,D] | %58
 E,[G,B,E] B,,[G,B,E] | E,[G,B,E] B,,[G,B,E] | F,[A,B,D] B,,[A,B,D] | F,[A,B,D] B,,[A,B,D] | %62
 E,[G,B,E] B,,[G,B,E] | E,[G,B,E] B,,[G,B,E] | F,[A,B,D] B,,[A,B,D] | F,[A,B,D] B,,[A,B,D] | %66
 E,[G,B,E] B,,[G,B,E] | E,[G,B,E] B,,[G,B,E] | [C,,C,]>[C,,C,] [C,,C,][C,,C,] | %69
 [_C,,_C,]>[C,,C,] [C,,C,][C,,C,] | !>![B,,,B,,]2 !>![B,,,B,,]2 | [E,,E,] z (3[E,E][F,F][G,G] || %72
[K:Ab] !>![A,A][E,E] [C,C][E,E] | [A,,A,] z [A,,,A,,] z |: !>![A,,,A,,]2 !>![C,,C,]2 | %75
 !>![E,,E,]4 | !>![F,,F,]2 !>![E,,E,]!>![C,,C,] | !>![A,,,A,,]4 | !>![E,,E,]2 [D,,D,][C,,C,] | %79
 !>![B,,,B,,]4 | !>![D,,D,]2 !>![C,,C,]!>![B,,,B,,] | !>![A,,,A,,]4 | [A,,,A,,]2 [C,,C,]2 | %83
 [E,,E,]4 | [F,,F,]2 [E,,E,][C,,C,] | [A,,,A,,]4 | [B,,,B,,]2 [D,,=D,]2 | [B,,,B,,]2 [D,,=D,]2 |1 %88
 [E,,E,] z !>![E,,E,]>!>![F,,F,] | !>![E,,E,]!>![D,,D,]!>![C,,C,]!>![B,,,B,,] :|2 [E,,E,] z z2 || %91
 [E,G,B,D]4 |: B,,[G,B,D] E,[G,B,D] | B,,[G,B,D] E,,[G,B,D] | A,,[E,A,C] E,,[E,A,C] | %95
 A,,[E,A,C] E,,[E,A,C] | B,,[G,B,D] E,,[G,B,D] | E,[G,B,D] E,[G,B,D] | C,[E,A,C] A,,[E,A,C] | %99
 C,[E,A,C] A,,[E,A,C] | B,,[G,B,D] E,[G,B,D] | B,,[G,B,D] E,,[G,B,D] | A,,[E,A,C] E,,[E,A,C] ||1 %103
 A,,[E,A,C] C,[E,A,C] | B,,[A,B,=D] F,[A,B,D] | =D,[A,B,] B,,[A,B,=D] | %106
 [E,E] [B,,,B,,][C,,C,][=D,,=D,] | [E,,E,]2 z2 :|2 _D,[F,A,B,] =D,[F,A,=B,] || %109
 [E,A,C][C,C] [D,D][=D,=D] | [E,E][=E,=E] [F,F][G,G] | [A,A] z [E,,E,]2 | [A,,,A,,]2 z2 || %113
[K:Eb] !>![B,,,B,,] B,/B,/ B,B, | [B,,D,F,A,]4 | [B,,,B,,][=B,,,=B,,][C,,C,][D,,D,] | %116
 [E,,E,] [G,B,E] [B,,,B,,][G,B,E] |: E,[G,B,E] B,,[G,B,E] | E,[G,B,E] B,,[G,B,E] | %119
 E,[G,B,E] B,,[G,B,E] | F,[A,B,D] B,,[A,B,D] | F,[A,B,D] B,,[A,B,D] | F,[A,B,D] B,,[A,B,D] | %123
 F,[A,B,D] B,,[A,B,D] | E,[G,B,E] B,,[G,B,E] | E,[G,B,E] B,,[G,B,E] | E,[G,B,E] B,,[G,B,E] ||1 %127
 E,[G,B,E] B,,[G,B,E] | D,[G,B,D] D,[G,B,D] | D,[^F,=A,D] [D,F,A,D]!>![C,C] | %130
 !>![B,,B,]!>![A,,=A,] !>![G,,G,]2 | ^F,_E, D,/C,/B,,/=A,,/ | G,, z !>!B,,[F,A,B,D] :| %133
 E,[G,B,E] =E,[G,B,C] | F,[B,D] D,[F,B,D] | B,,[F,B,] F,,[F,B,] | B,,[F,B,D] F,,[F,B,D] | %137
 C,[=A,CE] F,[A,CE] | [B,,B,] B,/B,/ B,B, |: F,[A,B,D] B,,[A,B,D] | F,[A,B,D] B,,[A,B,D] | %141
 E,[G,B,E] B,,[G,B,E] | E,[G,B,E] B,,[G,B,E] | F,[A,B,D] B,,[A,B,D] | F,[A,B,D] B,,[A,B,D] | %145
 E,[G,B,E] B,,[G,B,E] | E,[G,B,E] B,,[G,B,E] | F,[A,B,D] B,,[A,B,D] | F,[A,B,D] B,,[A,B,D] | %149
 E,[G,B,E] B,,[G,B,E] | E,[G,B,E] B,,[G,B,E] | [C,,C,]>[C,,C,] [C,,C,][C,,C,] | %152
 [_C,,_C,]>[C,,C,] [C,,C,][C,,C,] |1 !>![B,,,B,,]2 !>![B,,,B,,]2 | [E,,E,] B,/B,/ B,B, :|2 %155
 !>![B,,,B,,]2 !>![B,,,B,,]2 | [E,,E,]>[E,,E,] [E,,E,][E,,E,] || [_D,,_D,]>[D,,D,] [D,,D,][D,,D,] | %158
 [C,,C,]>[C,,C,] [C,,C,][C,,C,] | [_C,,_C,]>[C,,C,] [C,,C,][C,,C,] | %160
 [B,,,B,,]>[B,,,B,,] [B,,,B,,][B,,,B,,] | [B,,,B,,]>[B,,,B,,] [B,,,B,,][B,,,B,,] | %162
 [E,,E,]>[B,,,B,,] [B,,,B,,][B,,,B,,] | [E,,E,]>[B,,,B,,] [B,,,B,,][B,,,B,,] | %164
 [E,,E,][B,,,B,,][E,,E,][B,,,B,,] | [E,,E,][B,,,B,,][E,,E,][B,,,B,,] | [C,,C,] z [C,,C,] z | %167
 [C,,C,] z [C,,C,] z | [C,,C,] z z2 |{/[E,G,B,E]} [E,G,B,E] z z2 | %170
{/!fermata![E,,E,]} !fermata![E,,E,]4 |] %171

